X:3818
L:1/8
M:3/4
K:C
"C" e2 e3 G | c2 c3 G |"G7" B2 B3 G | F2 AG ^FG | f2 f3 G | B2 B3 G |"C" c2 c3 A | G2 AB cd | 
 e2 e3 G | c2 c3 G |"G7" B2 B3 G | F2 AG ^FG | f2 f3 G | BA GF ED |"C" C2 B,C EG | c2 z2 DD |: 
[K:G]"D7" (DE F)G AB | (cB c)e dc |"G" Bd gf ed | B2 cB AG |"D7" FA cf ed | ce dc BA |1 
"G" GB AG FE | D2 z2 DD :|2"G" G2 FG Bd | g2 z2"_> Teil A" z2 |:[K:F]"F" af cf Ac | af cf Ac | 
"C7" ge ce Bc | E2 GA Bc | ge ce Bc |1 E2 GA Bc |"F" cf cA FC | A,C FA cf :|2 EG Bd cE | 
"F" F2 EF Ac | f2 z2 c^c |:"Gm" d2 b3 a |"C7" gf ed cB |"F" Ac fA cf | dc Ad cA |"C7" Bc eB ce |1 
 (dc) .B(d c).B |"F" Ac fA cf | a2 z2 c^c :|2 dc Bd cE |"F" F2 EF Ac | f2 z2 z2 |]

